assets/images/vector/icons/circle_compose_icon.svg

<svg fill="none" height="59" viewBox="0 0 59 59" width="59" xmlns="http://www.w3.org/2000/svg"><g stroke="#111" stroke-linecap="round" stroke-linejoin="round" stroke-width="10"><path d="m53.1067 25.8333c.15 1.09.2266 2.2034.2266 3.3334 0 13.3466-10.82 24.1666-24.1666 24.1666-13.3467 0-24.1667-10.82-24.1667-24.1666 0-13.3467 10.82-24.1667 24.1667-24.1667 1.13 0 2.2433.07667 3.3333.22667"/><path d="m21.666 36.6667s7.0667-.4 9.4534-2.7867l20.8333-20.8333c1.84-1.84 1.84-4.8267 0-6.6667s-4.8267-1.84-6.6667 0l-20.8333 20.8333c-2.3867 2.3867-2.7867 9.4534-2.7867 9.4534z"/></g></svg>

<svg width="59" height="59" viewBox="0 0 59 59" fill="none" xmlns="http://www.w3.org/2000/svg">
<path d="M53.1067 25.8333C53.2567 26.9233 53.3333 28.0367 53.3333 29.1667C53.3333 42.5133 42.5133 53.3333 29.1667 53.3333C15.82 53.3333 5 42.5133 5 29.1667C5 15.82 15.82 5 29.1667 5C30.2967 5 31.41 5.07667 32.5 5.22667" stroke="#111111" stroke-width="10" stroke-linecap="round" stroke-linejoin="round"/>
<path d="M21.666 36.6667C21.666 36.6667 28.7327 36.2667 31.1194 33.88L51.9527 13.0467C53.7927 11.2067 53.7927 8.22 51.9527 6.38C50.1127 4.54 47.126 4.54 45.286 6.38L24.4527 27.2133C22.066 29.6 21.666 36.6667 21.666 36.6667Z" stroke="#111111" stroke-width="10" stroke-linecap="round" stroke-linejoin="round"/>
</svg>
